X:1
T:Title
%%score { 1 | ( 2 3 ) }
L:1/8
M:4/4
K:E
V:1 treble nm="Grand Piano"
V:2 bass 
V:3 bass 
V:1
 z4 z2[Q:1/4=100] B2 | G3 A B2 B2 | c2 B2 B2 G2 | [DF]3 [EG] [FA]2 [FB]2 | G6 B2 | G3 A B2 B2 | %6
 c2 B2 B2 G2 | [DF]3 [DF] [EG]2 [DF]2 | [EF]6 [GB]2 | [Ge]3 [GB] [GB]2 [Ge]2 | e3 c c2 c2 | %11
 B3 F F2 [FA]2 | G3 A B2 [B,GB]2 | [Ge]3 [GB] [GB]2 [Ge]2 | e3 c c2 c2 | B3 F G2 [DF]2 | E6 z2 |] %17
V:2
 z4 z2 [E,G,E]2 | [E,B,E]3 [E,F,E] [E,G,E]2 [E,G,E]2 | [E,A,E]2 [E,G,E]2 [E,G,E]2 [E,B,E]2 | %3
 [B,,B,]3 [B,,B,] [B,,B,]2 [B,,B,]2 | [E,B,E]6 [E,G,E]2 | [E,B,E]3 [E,F,E] [E,G,E]2 [E,G,E]2 | %6
 [E,A,E]2 [E,G,E]2 [E,G,E]2 [E,B,E]2 | [B,,B,]3 [B,,B,] [B,,B,]2 [B,,A,]2 | [E,G,]6 [E,B,]2 | %9
 [E,B,]3 [E,E] [E,E]2 [E,E]2 | [A,CA]3 [A,EA] [A,EA]2 [A,EA]2 | %11
 [B,DF]3[K:bass] [B,D] [B,D]2 [B,,B,]2 | [E,E]6 z2 | [E,B,]3 [E,E] [E,E]2 [E,B,]2 | %14
 [A,CA]3 [A,EA] [A,EA]2 [A,EA]2 | [B,DF]3[K:bass] [B,D] [B,D]2 [B,,A,]2 | [E,G,]6 z2 |] %17
V:3
 x8 | x8 | x8 | x8 | x8 | x8 | x8 | x8 | x8 | x8 | x8 | x3[K:bass] x5 | G,3 F, G,2 E,2 | x8 | x8 | %15
 x3[K:bass] x5 | x8 |] %17

